X: 20
T:Tuar Mr Polka No. 2, The
T:Maids of Ardagh, The
M:2/4
L:1/8
R:Polka
K:D
FA BA|de f2|fe/2f/2 gc|ed BA|!
FA BA|de f2|fe/2f/2 gc|1ed dA:|2ed d2|!
|:ef/2e/2 ce|fe a2|ef/2e/2 ce|fe c/2B/2A|!
ef/2e/2 ce|fe a2|ef/2e/2 dB|1BA A2:|2BA AG|]!
